svg/upload.svg

<?xml version="1.0" encoding="UTF-8"?>
<svg xmlns="http://www.w3.org/2000/svg" xmlns:xlink="http://www.w3.org/1999/xlink" width="32" height="32" viewBox="0 0 32 32">
<path fill-rule="nonzero" fill="rgb(0%, 0%, 0%)" fill-opacity="1" d="M 30.71875 16 C 30.71875 7.882812 24.117188 1.28125 16 1.28125 C 7.882812 1.28125 1.28125 7.882812 1.28125 16 C 1.28125 24.117188 7.882812 30.71875 16 30.71875 C 24.117188 30.71875 30.71875 24.117188 30.71875 16 M 15.359375 24.320312 L 15.359375 12.800781 L 11.519531 12.800781 L 16 8.320312 L 20.480469 12.800781 L 16.640625 12.800781 L 16.640625 24.320312 Z M 15.359375 24.320312 "/>
</svg>

<svg role="img" viewBox="0 0 32 32" height="32" width="32" xmlns="http://www.w3.org/2000/svg"><path d="M30.719 16c0-8.117-6.602-14.719-14.719-14.719C7.883 1.281 1.281 7.883 1.281 16c0 8.117 6.602 14.719 14.719 14.719 8.117 0 14.719-6.602 14.719-14.719m-15.36 8.32V12.8h-3.84L16 8.32l4.48 4.48h-3.84v11.52Zm0 0"/></svg>
